src/assets/weather-icons/night-cloudy.svg

<svg xmlns="http://www.w3.org/2000/svg" xml:space="preserve" style="fill-rule:evenodd;clip-rule:evenodd;stroke-linecap:round;stroke-linejoin:round;stroke-miterlimit:1.5" viewBox="0 0 128 128"><path fill="none" d="M79.84 45.637c-.373-8 2.73-16.185 8.743-21.658-1.822 7.592-.439 18.171 5.124 26.754s14.211 13.48 21.339 14.074c-7.781 5.185-17.437 5.063-24.731.204.207-9.41-3.661-16.369-10.475-19.374" style="fill:#ebebeb;fill-opacity:0;stroke:#000;stroke-width:4.77px" transform="matrix(.87778 0 0 .79918 4.73 12.461)"/><path fill="none" d="M39 104.992c-10.532-.32-19-10.723-19-23.492C20 68.53 28.738 58 39.5 58c2.45 0 4.796.546 6.957 1.542C50.787 50.378 60.377 44 71.5 44 84.584 44 92 54 90 69c12-2 20 5.93 20 15.5 0 11.093-6.676 20.14-15 20.49v.01H39z" style="fill:#ebebeb;fill-opacity:0;stroke:#000;stroke-width:4.77px" transform="matrix(.87778 0 0 .79918 4.73 12.461)"/></svg>

<?xml version="1.0" encoding="UTF-8" standalone="no"?>
<!DOCTYPE svg PUBLIC "-//W3C//DTD SVG 1.1//EN" "http://www.w3.org/Graphics/SVG/1.1/DTD/svg11.dtd">
<svg width="100%" height="100%" viewBox="0 0 128 128" version="1.1" xmlns="http://www.w3.org/2000/svg" xmlns:xlink="http://www.w3.org/1999/xlink" xml:space="preserve" xmlns:serif="http://www.serif.com/" style="fill-rule:evenodd;clip-rule:evenodd;stroke-linecap:round;stroke-linejoin:round;stroke-miterlimit:1.5;">
    <g transform="matrix(0.873261,0,0,0.802261,8.034773,3.76258)">
        <path d="M79.84,45.637C79.467,37.637 82.57,29.452 88.583,23.979C86.761,31.571 88.144,42.15 93.707,50.733C99.27,59.316 107.918,64.213 115.046,64.807C107.265,69.992 97.609,69.87 90.315,65.011C90.522,55.601 86.654,48.642 79.84,45.637Z" style="fill:rgb(235,235,235);fill-opacity:0;stroke:black;stroke-width:4.77px;"/>
    </g>
    <g transform="matrix(0.888889,0,0,0.819672,6.222222,2.934426)">
        <path d="M39,104.992C28.468,104.672 20,94.269 20,81.5C20,68.53 28.738,58 39.5,58C41.95,58 44.296,58.546 46.457,59.542C50.787,50.378 60.377,44 71.5,44C84.584,44 92,54 90,69C102,67 110,74.93 110,84.5C110,95.593 103.324,104.64 95,104.99L95,105L39,105L39,104.992Z" style="fill:rgb(235,235,235);fill-opacity:0;stroke:black;stroke-width:4.77px;"/>
    </g>
</svg>
